polaris-icons/icons/newicons/LockMajor.svg

<svg width="20" height="20" viewBox="0 0 20 20" fill="none" xmlns="http://www.w3.org/2000/svg">
<path d="M10.75 13.7993C11.1984 13.54 11.5 13.0552 11.5 12.5C11.5 11.6716 10.8284 11 10 11C9.17157 11 8.5 11.6716 8.5 12.5C8.5 13.0552 8.80165 13.54 9.25 13.7993V14.25C9.25 14.6642 9.58579 15 10 15C10.4142 15 10.75 14.6642 10.75 14.25V13.7993Z" fill="black"/>
<path fill-rule="evenodd" clip-rule="evenodd" d="M6.25 8.09451V5.75C6.25 3.67893 7.92893 2 10 2C12.0711 2 13.75 3.67893 13.75 5.75V8.09451C15.0439 8.42755 16 9.60212 16 11V15C16 16.6569 14.6569 18 13 18H7C5.34315 18 4 16.6569 4 15V11C4 9.60212 4.95608 8.42755 6.25 8.09451ZM7.75 5.75C7.75 4.50736 8.75736 3.5 10 3.5C11.2426 3.5 12.25 4.50736 12.25 5.75V8H7.75V5.75ZM5.5 11C5.5 10.1716 6.17157 9.5 7 9.5H13C13.8284 9.5 14.5 10.1716 14.5 11V15C14.5 15.8284 13.8284 16.5 13 16.5H7C6.17157 16.5 5.5 15.8284 5.5 15V11Z" fill="black"/>
</svg>

<svg viewBox="0 0 20 20" fill="none" xmlns="http://www.w3.org/2000/svg"><path d="M10.75 13.8a1.5 1.5 0 1 0-1.5 0v.45a.75.75 0 0 0 1.5 0v-.45Z" fill="#5C5F62"/><path fill-rule="evenodd" clip-rule="evenodd" d="M6.25 8.095v-2.345a3.75 3.75 0 1 1 7.5 0v2.345a3.001 3.001 0 0 1 2.25 2.905v4a3 3 0 0 1-3 3h-6a3 3 0 0 1-3-3v-4c0-1.398.956-2.572 2.25-2.905Zm1.5-2.345a2.25 2.25 0 0 1 4.5 0v2.25h-4.5v-2.25Zm-2.25 5.25a1.5 1.5 0 0 1 1.5-1.5h6a1.5 1.5 0 0 1 1.5 1.5v4a1.5 1.5 0 0 1-1.5 1.5h-6a1.5 1.5 0 0 1-1.5-1.5v-4Z" fill="#5C5F62"/></svg>
